svg/Pictogram/pictograms-aem-0073-wear_protective_gloves.svg

<?xml version="1.0" encoding="ISO-8859-1" standalone="yes"?>
<svg height="304.014" width="304.015">
  <metadata>
    <rdf:RDF xmlns:cc="http://web.resource.org/cc/" xmlns:dc="http://purl.org/dc/elements/1.1/" xmlns:rdf="http://www.w3.org/1999/02/22-rdf-syntax-ns#">
      <cc:Work rdf:about="">
        <dc:title></dc:title>
        <dc:description></dc:description>
        <dc:subject>
          <rdf:Bag>
            <rdf:li></rdf:li>
          </rdf:Bag>
        </dc:subject>
        <dc:publisher>
          <cc:Agent rdf:about="http://www.unece.org/trans/danger/publi/ghs/pictograms.html">
            <dc:title>Source: UNECE GHS of Classification and Labeling of Chemicals, Source: AEM Pictorial Database, Source: AEM Pictorial Database, Source: AEM Pictorial Database, Source: AEM Pictorial Database</dc:title>
          </cc:Agent>
        </dc:publisher>
        <dc:creator>
          <cc:Agent>
            <dc:title></dc:title>
          </cc:Agent>
        </dc:creator>
        <dc:rights>
          <cc:Agent>
            <dc:title></dc:title>
          </cc:Agent>
        </dc:rights>
        <dc:date></dc:date>
        <dc:format>image/svg+xml</dc:format>
        <dc:type rdf:resource="http://purl.org/dc/dcmitype/StillImage"/>
        <cc:license rdf:resource="http://en.wikipedia.org/wiki/Public_domain"/>
        <dc:language>en</dc:language>
      </cc:Work>
    </rdf:RDF>
  </metadata>
  <defs><marker id="ArrowEnd" markerHeight="3" markerUnits="strokeWidth" markerWidth="4" orient="auto" refX="0" refY="5" viewBox="0 0 10 10"><path d="M 0 0 L 10 5 L 0 10 z"/></marker><marker id="ArrowStart" markerHeight="3" markerUnits="strokeWidth" markerWidth="4" orient="auto" refX="10" refY="5" viewBox="0 0 10 10"><path d="M 10 0 L 0 5 L 10 10 z"/></marker> </defs>
  <g id="g2958" transform="matrix(1.3532768,0,0,1.3532781,-53.207834,-52.192858)">
    <path d="M 155.905 108.553C 155.905 105.307 153.276 102.678 150.034 102.678C 146.792 102.678 144.163 105.307 144.163 108.553L 144.05 109.049C 143.808 110.506 143.222 129.823 143.179 141.291L 143.12 142.151C 143.12 143.088 142.362 143.846 141.425 143.846C 140.491 143.846 139.733 143.088 139.733 142.151L 139.702 139.366L 141.226 100.073C 141.226 96.4094 138.261 93.4404 134.593 93.4404C 131.23 93.4404 128.448 95.9484 128.022 99.1984L 127.823 100.686C 127.702 101.51 126.124 129.874 126.28 141.624L 126.226 142.616C 126.226 143.331 125.647 143.913 124.933 143.913C 124.218 143.913 123.636 143.331 123.636 142.616L 123.694 141.952C 123.628 123.393 123.589 110.471 122.827 106.678L 122.909 102.624C 122.909 99.4714 120.354 96.9164 117.202 96.9164C 114.327 96.9164 112.601 99.2174 111.554 101.803C 111.093 102.928 110.843 103.803 110.718 105.553C 109.312 115.651 109.667 136.456 110.237 148.655L 110.265 149.252C 110.265 150.002 109.651 150.616 108.901 150.616C 108.151 150.616 107.542 150.002 107.542 149.252L 107.48 148.721C 107.452 141.288 105.952 115.237 105.952 115.237C 105.952 112.565 103.784 110.397 101.112 110.397C 98.7724 110.397 96.8234 112.057 96.3704 114.26C 96.3704 114.26 92.8544 149.842 93.6594 157.573L 93.5464 161.495C 92.4684 191.303 87.3544 228.143 83.6474 243.745C 103.542 240.569 141.714 241.26 172.483 247.748C 159.437 222.553 156.405 138.166 155.913 109.174L 155.901 108.553" style="stroke:none; fill-rule:evenodd; fill:#000000"/>
    <path d="M 143.288 193.94C 149.964 191.268 148.628 194.272 168.323 173.573C 188.022 152.874 197.034 120.491 197.034 120.491C 196.702 103.463 183.015 109.475 183.015 109.475C 180.679 110.811 177.007 111.479 159.98 130.174C 159.98 130.174 151.968 134.178 151.3 128.838L 152.636 143.53C 163.659 130.581 170.718 123.959 175.757 119.206C 175.757 119.206 183.269 113.03 184.683 112.147C 186.983 110.717 191.03 112.147 191.03 112.147C 191.03 112.147 194.366 115.487 193.03 119.827C 193.03 119.827 193.569 129.307 180.218 151.026C 169.417 168.588 163.808 173.198 161.933 174.78C 161.933 174.78 157.472 174.491 154.304 173.053" style="stroke:none; fill-rule:evenodd; fill:#000000"/>
    <path d="M 208.972 86.6744L 209.405 86.6744C 209.284 86.7024 209.132 86.6984 208.972 86.6744" style="stroke:none; fill-rule:evenodd; fill:#000000"/>
    <path d="M 220.362 91.4794C 219.179 83.2094 211.323 84.8234 208.226 86.3774C 207.866 86.0924 207.632 85.6084 207.808 84.8314C 208.913 79.9014 209.28 74.9794 208.542 72.1514C 208.077 70.3584 206.448 67.1044 202.632 65.6244C 198.815 64.1474 196.601 66.4874 195.983 67.1044C 195.37 67.7174 193.397 70.6704 190.937 72.6434L 190.444 73.1354C 191.062 68.2094 190.952 62.5344 187.983 59.0964C 185.644 56.3894 182.077 56.0694 180.597 56.2644C 177.765 56.6354 175.519 58.5224 174.112 60.1514C 172.53 61.9834 169.144 67.4674 167.792 69.3154L 167.581 69.1594C 166.147 64.5184 164.319 62.2094 162.495 61.0694C 160.526 59.8384 156.585 60.6984 156.585 60.6984C 154.245 61.4364 152.487 64.7454 151.171 67.1004C 148.831 71.2844 141.812 93.9404 140.214 98.6164L 138.015 118.495C 138.819 114.319 144.749 95.3234 146.097 89.7954C 146.097 89.7954 151.351 71.3424 152.565 69.1864C 152.565 69.1864 155.933 64.3344 159.569 65.9524C 163.206 67.5694 163.476 70.9364 163.476 73.2254C 163.476 73.2254 164.284 81.9834 162.937 93.0304C 162.608 95.7334 164.015 95.1864 164.421 93.8384C 164.823 92.4914 173.577 70.5304 174.116 69.8584C 174.659 69.1824 177.351 63.7954 178.026 62.9874C 178.702 62.1784 180.315 61.2374 180.854 61.2374C 181.394 61.2374 186.112 62.8544 186.378 67.2994C 186.651 71.7454 185.718 86.6984 180.194 99.0924C 180.194 99.0924 180.155 99.4404 180.964 99.8234C 180.964 99.8234 183.23 100.284 184.628 98.6864C 184.628 98.6864 188.214 91.2724 189.616 86.9634C 190.577 83.9874 192.612 77.9834 195.558 72.9754C 195.558 72.9754 195.905 71.9244 197.538 71.3424C 199.171 70.7604 203.948 70.6474 204.999 72.8624C 206.046 75.0734 206.515 74.3774 206.046 77.9874C 206.046 77.9874 204.98 85.7994 203.253 91.9754C 202.437 94.8894 200.917 100.248 200.104 101.764C 200.104 101.764 198.237 106.541 201.034 102.581C 201.034 102.581 208.03 89.6434 209.546 88.5924C 209.546 88.5924 212.456 86.9634 214.554 88.1274C 214.554 88.1274 217.702 88.9444 217.702 91.8584C 217.702 94.7724 215.722 99.3194 215.022 101.182C 214.323 103.045 208.608 122.51 206.745 130.67C 204.882 138.831 200.218 156.897 196.14 180.323C 194.995 186.889 191.983 210.995 191.835 213.17C 190.796 213.186 189.683 213.17 188.913 213.073C 187.05 212.838 183.894 211.35 182.851 211.206C 178.655 210.624 161.405 209.112 160.358 209.112L 150.8 215.831C 160.897 214.475 176.308 214.62 179.366 214.967C 189.093 216.077 193.894 217.799 197.831 219.397L 199.437 200.069C 199.929 190.959 202.882 170.569 203.62 166.334C 204.483 161.409 206.929 144.85 208.425 138.874C 209.776 133.459 215.812 106.002 219.136 98.1244C 219.136 98.1244 219.136 97.7524 219.378 97.2604C 219.628 96.7684 220.491 92.3344 220.366 91.4754" style="stroke:none; fill-rule:evenodd; fill:#000000"/>
    <path d="M 29.6204 265.393L 2.62042 265.393" style="stroke:#000000; stroke-width:0.5; fill:none"/>
    <path d="M 38.6204 274.393L 38.6204 301.393" style="stroke:#000000; stroke-width:0.5; fill:none"/>
    <path d="M 29.6204 38.6204L 2.62042 38.6204" style="stroke:#000000; stroke-width:0.5; fill:none"/>
    <path d="M 38.6204 29.6204L 38.6204 2.62042" style="stroke:#000000; stroke-width:0.5; fill:none"/>
    <path d="M 274.394 38.6204L 301.394 38.6204" style="stroke:#000000; stroke-width:0.5; fill:none"/>
    <path d="M 265.394 29.6204L 265.394 2.62042" style="stroke:#000000; stroke-width:0.5; fill:none"/>
    <path d="M 274.394 265.393L 301.394 265.393" style="stroke:#000000; stroke-width:0.5; fill:none"/>
    <path d="M 265.394 274.393L 265.394 301.393" style="stroke:#000000; stroke-width:0.5; fill:none"/>
  </g>
</svg>

<svg viewBox="0 0 304.01 304.01"><g transform="matrix(1.35328 0 0 1.35328-53.21-52.19)" fill-rule="evenodd"><path d="m155.91 108.55c0-3.246-2.629-5.875-5.871-5.875-3.242 0-5.871 2.629-5.871 5.875l-.113.496c-.242 1.457-.828 20.774-.871 32.24l-.059.86c0 .937-.758 1.695-1.695 1.695-.934 0-1.692-.758-1.692-1.695l-.031-2.785 1.524-39.29c0-3.664-2.965-6.633-6.633-6.633-3.363 0-6.145 2.508-6.571 5.758l-.199 1.488c-.121.824-1.699 29.19-1.543 40.938l-.054.992c0 .715-.579 1.297-1.293 1.297-.715 0-1.297-.582-1.297-1.297l.058-.664c-.066-18.559-.105-31.481-.867-35.27l.082-4.054c0-3.153-2.555-5.708-5.707-5.708-2.875 0-4.601 2.301-5.648 4.887-.461 1.125-.711 2-.836 3.75-1.406 10.1-1.051 30.903-.481 43.1l.028.597c0 .75-.614 1.364-1.364 1.364-.75 0-1.359-.614-1.359-1.364l-.062-.531c-.028-7.433-1.528-33.484-1.528-33.484 0-2.672-2.168-4.84-4.84-4.84-2.34 0-4.289 1.66-4.742 3.863 0 0-3.516 35.582-2.711 43.31l-.113 3.922c-1.078 29.808-6.192 66.65-9.899 82.25 19.895-3.176 58.07-2.485 88.84 4-13.05-25.19-16.08-109.58-16.57-138.57l-.012-.621"/><path d="m143.29 193.94c6.676-2.672 5.34.332 25.03-20.367 19.699-20.699 28.711-53.08 28.711-53.08-.332-17.03-14.02-11.02-14.02-11.02-2.336 1.336-6.01 2-23.03 20.699 0 0-8.01 4-8.68-1.336l1.336 14.692c11.02-12.949 18.08-19.571 23.12-24.324 0 0 7.512-6.176 8.926-7.06 2.3-1.43 6.347 0 6.347 0 0 0 3.336 3.34 2 7.68 0 0 .539 9.48-12.812 31.2-10.801 17.562-16.41 22.17-18.285 23.754 0 0-4.461-.289-7.629-1.727"/><path d="m208.97 86.67h.433c-.121.028-.273.024-.433 0"/><path d="m220.36 91.48c-1.183-8.27-9.04-6.656-12.136-5.102-.36-.285-.594-.769-.418-1.546 1.105-4.93 1.472-9.852.734-12.68-.465-1.793-2.094-5.05-5.91-6.527-3.817-1.477-6.03.863-6.649 1.48-.613.613-2.586 3.566-5.05 5.539l-.493.492c.618-4.926.508-10.601-2.461-14.04-2.339-2.707-5.906-3.03-7.386-2.832-2.832.371-5.078 2.258-6.485 3.887-1.582 1.832-4.968 7.316-6.32 9.164l-.211-.156c-1.434-4.641-3.262-6.95-5.086-8.09-1.969-1.231-5.91-.371-5.91-.371-2.34.738-4.098 4.047-5.414 6.402-2.34 4.184-9.359 26.84-10.957 31.516l-2.199 19.879c.804-4.176 6.734-23.17 8.08-28.7 0 0 5.254-18.453 6.468-20.609 0 0 3.368-4.852 7-3.234 3.637 1.617 3.907 4.984 3.907 7.273 0 0 .808 8.758-.539 19.805-.329 2.703 1.078 2.156 1.484.808.402-1.347 9.156-23.308 9.695-23.98.543-.676 3.235-6.06 3.91-6.871.676-.809 2.289-1.75 2.828-1.75.54 0 5.258 1.617 5.524 6.06.273 4.446-.66 19.399-6.184 31.793 0 0-.039.348.77.731 0 0 2.266.461 3.664-1.137 0 0 3.586-7.414 4.988-11.723.961-2.976 2.996-8.98 5.942-13.988 0 0 .347-1.051 1.98-1.633 1.633-.582 6.41-.695 7.461 1.52 1.047 2.211 1.516 1.515 1.047 5.125 0 0-1.066 7.812-2.793 13.988-.816 2.914-2.336 8.273-3.149 9.789 0 0-1.867 4.777.93.817 0 0 6.996-12.938 8.512-13.989 0 0 2.91-1.629 5.01-.465 0 0 3.148.817 3.148 3.731 0 2.914-1.98 7.461-2.68 9.324-.699 1.863-6.414 21.328-8.277 29.488-1.863 8.161-6.527 26.23-10.605 49.653-1.145 6.566-4.157 30.672-4.305 32.847-1.039.016-2.152 0-2.922-.097-1.863-.235-5.02-1.723-6.06-1.867-4.196-.582-21.446-2.094-22.493-2.094l-9.558 6.719c10.1-1.356 25.508-1.211 28.566-.864 9.727 1.11 14.528 2.832 18.465 4.43l1.606-19.328c.492-9.11 3.445-29.5 4.183-33.735.863-4.925 3.309-21.484 4.805-27.46 1.351-5.415 7.387-32.872 10.711-40.75 0 0 0-.372.242-.864.25-.492 1.113-4.926.988-5.785"/></g></svg>
